X: 1
T: Kelsey's Wee
M: 4/4
L: 1/8
R: reel
K: Amix
| A2cA ecc2|Aaae fefa|A2cA ecc2|Bcde fefa|
A2cA ecc2|Aaae fefa|Aaae fcc2|Bcde fefa|
|AaaB acca|Aaae fefa|AaaB acca|Bcde fefa|
AaaB acca|faea acca|AaaB acca|Bcde fefa|
